src/images/phone-icon.svg

<svg width="13" height="12" viewBox="0 0 15 14" fill="none" xmlns="http://www.w3.org/2000/svg">
<path d="M14.754 10.4817V12.5893C14.7549 12.7849 14.7126 12.9786 14.6298 13.1578C14.547 13.3371 14.4256 13.498 14.2734 13.6303C14.1211 13.7626 13.9414 13.8633 13.7457 13.9259C13.55 13.9886 13.3426 14.0119 13.1368 13.9943C10.854 13.7594 8.66121 13.0207 6.73462 11.8376C4.94218 10.7589 3.4225 9.31984 2.28351 7.62243C1.02976 5.78969 0.249529 3.70306 0.00602139 1.53156C-0.0125171 1.33729 0.0118634 1.1415 0.0776104 0.956639C0.143357 0.77178 0.24903 0.601911 0.387901 0.457846C0.526772 0.313781 0.695799 0.198678 0.884219 0.119863C1.07264 0.0410494 1.27632 0.000251806 1.48231 6.81111e-05H3.70786C4.06789 -0.00328744 4.41692 0.117444 4.6899 0.33976C4.96288 0.562076 5.14118 0.870806 5.19157 1.20841C5.2855 1.88287 5.45971 2.54511 5.71086 3.18249C5.81067 3.43394 5.83227 3.70721 5.77311 3.96993C5.71394 4.23265 5.57648 4.4738 5.37703 4.66481L4.43488 5.55701C5.49094 7.31581 7.02873 8.77206 8.88599 9.77214L9.82814 8.87994C10.0298 8.69106 10.2845 8.56089 10.5619 8.50486C10.8393 8.44883 11.1279 8.46929 11.3934 8.56381C12.0665 8.80164 12.7658 8.96662 13.478 9.05557C13.8384 9.10371 14.1675 9.2756 14.4028 9.53855C14.6381 9.8015 14.7631 10.1372 14.754 10.4817Z" fill="#51a1ff"/>
</svg>

<svg width="13" height="12" viewBox="0 0 15 14" fill="none" xmlns="http://www.w3.org/2000/svg"><path d="M14.75 10.48v2.1a1.34 1.34 0 01-.48 1.05 1.5 1.5 0 01-1.13.36 15.22 15.22 0 01-6.4-2.15A14.1 14.1 0 010 1.54 1.34 1.34 0 01.39.45 1.48 1.48 0 011.49 0H3.7c.36 0 .7.12.98.34.27.22.45.53.5.87.1.67.27 1.34.52 1.97a1.33 1.33 0 01-.33 1.48l-.95.9A11.58 11.58 0 008.9 9.77l.94-.89c.2-.19.45-.32.73-.38.28-.05.57-.03.83.06.68.24 1.38.4 2.09.5.36.04.69.22.92.48.24.26.36.6.35.94z" fill="#51a1ff"/></svg>
